X: 27262
T: Miss Stewart Of Garth
R: reel
M: 4/4
K: Eminor
|:E2EF GABG|FdAd FDDF|E2EF GABG|1 Bdgf {d}e3G:|2 Be gf e2ed||
ebga bgeg|fada fdaf|efga ^abag|fd af {d}e3d|
ebga bgeg|fada fdaf|gefd efge|dBAG E4|

